!!!!SEGMENT: pl-wn--mus-iii-65-947-cim--001-006_sowinski-wojciech--swiety-wojciech-meczennik-no-6-recitativo.krn
!!!cenid: 18xx:3599
!!!COM: Sowiński, Wojciech
!!!COM-rismID: pe30008543
!!!CDT: ~1803-1880/03/05
!!!CNT:
!!!GTL: Święty Wojciech męczennik
!!!OTL: No. 6. Recitativo
!!!OMV: 006
!!!PDT: 1877
!!!AGN:
!!!YEC: Copyright 2022 Narodowy Instytut Fryderyka Chopina (https://polishscores.org)
!!!YEM: License CC-BY-4.0 (https://creativecommons.org/licenses/by/4.0)
!!!SMS-siglum: PL-Wn
!!!SMS-shelfmark: Mus.III.65.947 Cim.
!!!SMS-shelfwork: 001-006 G
!!!SMS-variant:
!!!SMS-altvar:
!!!NIFC-rismSourceID:
!!!NIFC-rismChildID:
!!!NIFC-islandoraID: none
!!!URL-pdf-islandora:
!!!URL-scan: https://polona2.pl/item/swiety-wojciech-meczennik-oratorjo-w-trzech-czesciach-dzielo-66-spiew-z-fortepianem,MTkzODI1Mzc/242/#item @EN{Scan on Polona} @PL{Skany w portalu Polona}
!!!IIIF: https://polona2.pl/iiif/item/MTkzODI1Mzc/manifest.js
!!!ONB-nifc: UWAGA: oratorium zawiera w źródle 28 numerów podzielonych na 30 plików (rozdzielenie w No. 6 - osobno Recitativo oraz Aria matki i No. 10 - osobno Recitativo, arja i chór oraz Sen). Polecam widok miniatur na Polonie. Uwaga co do obsady: prosimy umieszczać tylko partie występujące w danym numerze (nie całą obsadę oratorium)
!!!AIN: 1 barit 1 bass 1 male 1 piano 2 tenor
!!!key: g
**kern	**kern	**dynam	**kern	**text	**dynam	**kern	**text	**dynam	**kern	**text	**dynam	**kern	**text	**dynam	**kern	**text	**dynam
*	*	*	*group1	*	*	*group1	*	*	*group1	*	*	*group1	*	*	*	*	*
*part6	*part6	*	*part5	*	*	*part4	*	*	*part3	*	*	*part2	*	*	*part1	*	*
*staff7	*staff6	*	*staff5	*	*	*staff4	*	*	*staff3	*	*	*staff2	*	*	*staff1	*	*
*I"PIANO	*I"PIANO	*	*I"Bas.	*	*	*I"Bariton. .	*	*	*I"Tenor. 2°.	*	*	*I"Tenor. 1°.	*	*	*I"AZAEL	*	*
*Ipiano	*Ipiano	*	*Ibass	*	*	*Ibarit	*	*	*Itenor	*	*	*Itenor	*	*	*Imale	*	*
*ICklav	*ICklav	*	*ICvox	*	*	*ICvox	*	*	*ICvox	*	*	*ICvox	*	*	*ICvox	*	*
*IGacmp	*IGacmp	*	*IGcoro	*	*	*IGcoro	*	*	*IGcoro	*	*	*IGcoro	*	*	*IGsolo	*	*
*clefF4	*clefG2	*	*clefF4	*	*	*clefG2	*	*	*clefG2	*	*	*clefG2	*	*	*clefG2	*	*
*	*	*	*	*	*	*ITrd8c12	*	*	*ITrd8c12	*	*	*ITrd8c12	*	*	*ITrd8c12	*	*
*k[b-e-]	*k[b-e-]	*	*k[b-e-]	*	*	*k[b-e-]	*	*	*k[b-e-]	*	*	*k[b-e-]	*	*	*k[b-e-]	*	*
*g:	*g:	*	*g:	*	*	*g:	*	*	*g:	*	*	*g:	*	*	*g:	*	*
*M4/4	*M4/4	*	*M4/4	*	*	*M4/4	*	*	*M4/4	*	*	*M4/4	*	*	*M4/4	*	*
*met(c)	*met(c)	*	*met(c)	*	*	*met(c)	*	*	*met(c)	*	*	*met(c)	*	*	*met(c)	*	*
=1	=1	=1	=1	=1	=1	=1	=1	=1	=1	=1	=1	=1	=1	=1	=1	=1	=1
*xywh-#53:94,518,2070,479	*xywh-#53:94,518,2070,479	*	*	*	*	*	*	*	*	*	*	*	*	*	*	*	*
!	!LO:TX:b:t=Cello Solo	!LO:DY:rj	!	!	!	!	!	!	!	!	!	!	!	!	!	!	!
4BB-\	(>2B-</	p	1ryy	.	.	1ryy	.	.	1ryy	.	.	1ryy	.	.	1ryy	.	.
8C\L	.	.	.	.	.	.	.	.	.	.	.	.	.	.	.	.	.
8D\J	.	.	.	.	.	.	.	.	.	.	.	.	.	.	.	.	.
4E-\	4G</	.	.	.	.	.	.	.	.	.	.	.	.	.	.	.	.
8F\L	4A</	.	.	.	.	.	.	.	.	.	.	.	.	.	.	.	.
8E-\J	.	.	.	.	.	.	.	.	.	.	.	.	.	.	.	.	.
=2	=2	=2	=2	=2	=2	=2	=2	=2	=2	=2	=2	=2	=2	=2	=2	=2	=2
4D\	4.B-<SSs</	.	1ryy	.	.	1ryy	.	.	1ryy	.	.	1ryy	.	.	1ryy	.	.
4BB-\	.	.	.	.	.	.	.	.	.	.	.	.	.	.	.	.	.
.	8d</	.	.	.	.	.	.	.	.	.	.	.	.	.	.	.	.
8r	4F</)	.	.	.	.	.	.	.	.	.	.	.	.	.	.	.	.
8FF\L	.	.	.	.	.	.	.	.	.	.	.	.	.	.	.	.	.
8GG\	4r<	.	.	.	.	.	.	.	.	.	.	.	.	.	.	.	.
8AA\J	.	.	.	.	.	.	.	.	.	.	.	.	.	.	.	.	.
=3	=3	=3	=3	=3	=3	=3	=3	=3	=3	=3	=3	=3	=3	=3	=3	=3	=3
*	*^	*	*	*	*	*	*	*	*	*	*	*	*	*	*	*	*
*	*	*xywh-#53:94,518,2070,479	*	*	*	*	*	*	*	*	*	*	*	*	*	*	*	*
2BB-\	2b-/	4B-</	.	1ryy	.	.	1ryy	.	.	1ryy	.	.	1ryy	.	.	1ryy	.	.
.	.	8c</L	.	.	.	.	.	.	.	.	.	.	.	.	.	.	.	.
.	.	8d</J	.	.	.	.	.	.	.	.	.	.	.	.	.	.	.	.
4E-\	4g/	4e-\	.	.	.	.	.	.	.	.	.	.	.	.	.	.	.	.
4C\	4a/	8f\L	.	.	.	.	.	.	.	.	.	.	.	.	.	.	.	.
.	.	8e-\J	.	.	.	.	.	.	.	.	.	.	.	.	.	.	.	.
=4	=4	=4	=4	=4	=4	=4	=4	=4	=4	=4	=4	=4	=4	=4	=4	=4	=4	=4
4BB-\	2b-/	4.d\	.	1ryy	.	.	1ryy	.	.	1ryy	.	.	1ryy	.	.	1ryy	.	.
4D\	.	.	.	.	.	.	.	.	.	.	.	.	.	.	.	.	.	.
.	.	8f\	.	.	.	.	.	.	.	.	.	.	.	.	.	.	.	.
4E-\	4g/	4B-</	.	.	.	.	.	.	.	.	.	.	.	.	.	.	.	.
8C\L	8a/L	8A</L	.	.	.	.	.	.	.	.	.	.	.	.	.	.	.	.
8BB-\J	8b-/J	8B-</J	.	.	.	.	.	.	.	.	.	.	.	.	.	.	.	.
=5	=5	=5	=5	=5	=5	=5	=5	=5	=5	=5	=5	=5	=5	=5	=5	=5	=5	=5
(8AA/L	4.cc 4.c/	2.ryy	.	1ryy	.	.	1ryy	.	.	1ryy	.	.	1ryy	.	.	1ryy	.	.
8C/	.	.	.	.	.	.	.	.	.	.	.	.	.	.	.	.	.	.
8AA/	.	.	.	.	.	.	.	.	.	.	.	.	.	.	.	.	.	.
8GG/J)	8b- 8B-/	.	.	.	.	.	.	.	.	.	.	.	.	.	.	.	.	.
4FF#X/	4a 4A/	.	.	.	.	.	.	.	.	.	.	.	.	.	.	.	.	.
4DD/	8dd/L	4f#X\	.	.	.	.	.	.	.	.	.	.	.	.	.	.	.	.
.	8cc/J	.	.	.	.	.	.	.	.	.	.	.	.	.	.	.	.	.
=6	=6	=6	=6	=6	=6	=6	=6	=6	=6	=6	=6	=6	=6	=6	=6	=6	=6	=6
(8G\L	(>2b- 2g/	2.ryy	.	1ryy	.	.	1ryy	.	.	1ryy	.	.	1ryy	.	.	1ryy	.	.
8Fn\	.	.	.	.	.	.	.	.	.	.	.	.	.	.	.	.	.	.
8E-\	.	.	.	.	.	.	.	.	.	.	.	.	.	.	.	.	.	.
8D\J)	.	.	.	.	.	.	.	.	.	.	.	.	.	.	.	.	.	.
2D\	4a 4f#X/)	.	.	.	.	.	.	.	.	.	.	.	.	.	.	.	.	.
.	8dd/L	4f#\	.	.	.	.	.	.	.	.	.	.	.	.	.	.	.	.
.	8cc/J	.	.	.	.	.	.	.	.	.	.	.	.	.	.	.	.	.
*	*v	*v	*	*	*	*	*	*	*	*	*	*	*	*	*	*	*	*
!!LO:LB:g=original
=7	=7	=7	=7	=7	=7	=7	=7	=7	=7	=7	=7	=7	=7	=7	=7	=7	=7
*xywh-#53:141,1155,1921,481	*xywh-#53:141,1155,1921,481	*	*	*	*	*	*	*	*	*	*	*	*	*	*xywh-#53:135,914,1937,336	*	*
4G\	(4b- 4g/	.	1ryy	.	.	1ryy	.	.	1ryy	.	.	1ryy	.	.	1r	.	.
4Fn\	4bn 4g 4d/	.	.	.	.	.	.	.	.	.	.	.	.	.	.	.	.
4E-\	4cc 4g 4e-/	.	.	.	.	.	.	.	.	.	.	.	.	.	.	.	.
8.D^\L	8.ddL 8.d/	.	.	.	.	.	.	.	.	.	.	.	.	.	.	.	.
16C\Jk	16ee-Jk 16e-/)	.	.	.	.	.	.	.	.	.	.	.	.	.	.	.	.
=8	=8	=8	=8	=8	=8	=8	=8	=8	=8	=8	=8	=8	=8	=8	=8	=8	=8
*	*^	*	*	*	*	*	*	*	*	*	*	*	*	*	*	*	*
*	*	*xywh-#53:141,1155,1921,481	*	*	*	*	*	*	*	*	*	*	*	*	*	*	*	*
2AA/	2ee-/	2f#X 2e-\	.	1ryy	.	.	1ryy	.	.	1ryy	.	.	1ryy	.	.	1r	.	.
4D/	4.dd/	2ryy	.	.	.	.	.	.	.	.	.	.	.	.	.	.	.	.
4F#X/	.	.	.	.	.	.	.	.	.	.	.	.	.	.	.	.	.	.
.	8a/	.	.	.	.	.	.	.	.	.	.	.	.	.	.	.	.	.
=9	=9	=9	=9	=9	=9	=9	=9	=9	=9	=9	=9	=9	=9	=9	=9	=9	=9	=9
2G\	(4dd/	2g 2d\	.	1ryy	.	.	1ryy	.	.	1ryy	.	.	1ryy	.	.	2r	.	.
.	4b-/)	.	.	.	.	.	.	.	.	.	.	.	.	.	.	.	.	.
!	!	!	!	!	!	!	!	!	!	!	!	!	!	!	!	!	!	!LO:DY:b
2r	2r	2ryy	.	.	.	.	.	.	.	.	.	.	.	.	.	4r	.	mf
.	.	.	.	.	.	.	.	.	.	.	.	.	.	.	.	8r	.	.
.	.	.	.	.	.	.	.	.	.	.	.	.	.	.	.	8D/	Wstę-	.
*	*v	*v	*	*	*	*	*	*	*	*	*	*	*	*	*	*	*	*
=10	=10	=10	=10	=10	=10	=10	=10	=10	=10	=10	=10	=10	=10	=10	=10	=10	=10
1G 1GG	1g 1d 1B-	.	1ryy	.	.	1ryy	.	.	1ryy	.	.	1ryy	.	.	2.G/	-pu-	.
.	.	.	.	.	.	.	.	.	.	.	.	.	.	.	4A/	-ją	.
=11	=11	=11	=11	=11	=11	=11	=11	=11	=11	=11	=11	=11	=11	=11	=11	=11	=11
(2E- 2EE-/	(2g 2B- 2G/	<	1ryy	.	.	1ryy	.	.	1ryy	.	.	1ryy	.	.	8.B-/	z_ran-	.
.	.	.	.	.	.	.	.	.	.	.	.	.	.	.	16B-/	-kiem	.
.	.	.	.	.	.	.	.	.	.	.	.	.	.	.	8.A/	do	.
.	.	.	.	.	.	.	.	.	.	.	.	.	.	.	16G/	rol-	.
2C 2CC/)	2g 2e- 2A/)	[	.	.	.	.	.	.	.	.	.	.	.	.	4c\	-ni-	.
.	.	.	.	.	.	.	.	.	.	.	.	.	.	.	4B-\	-czéj	.
=12	=12	=12	=12	=12	=12	=12	=12	=12	=12	=12	=12	=12	=12	=12	=12	=12	=12
4D 4DD^>/	4g 4d 4B-/	.	1ryy	.	.	1ryy	.	.	1ryy	.	.	1ryy	.	.	4B-\	cha-	.
4D 4DD^>/	4f#X 4d 4A/	.	.	.	.	.	.	.	.	.	.	.	.	.	4A\	-tki	.
2r	2r	.	.	.	.	.	.	.	.	.	.	.	.	.	4ryy	.	.
.	.	.	.	.	.	.	.	.	.	.	.	.	.	.	8.A/	Kę-	.
.	.	.	.	.	.	.	.	.	.	.	.	.	.	.	16A/	-dy	.
=13	=13	=13	=13	=13	=13	=13	=13	=13	=13	=13	=13	=13	=13	=13	=13	=13	=13
4G 4GG/	4bn 4g 4d/	f	1ryy	.	.	1ryy	.	.	1ryy	.	.	1ryy	.	.	[2B\	ród	.
4r	4r	.	.	.	.	.	.	.	.	.	.	.	.	.	.	.	.
4F 4FF/	4dd 4b 4g 4d/	.	.	.	.	.	.	.	.	.	.	.	.	.	4.B\]	.	.
4r	4r	.	.	.	.	.	.	.	.	.	.	.	.	.	.	.	.
.	.	.	.	.	.	.	.	.	.	.	.	.	.	.	8B\	po-	.
!!LO:LB:g=original
=14	=14	=14	=14	=14	=14	=14	=14	=14	=14	=14	=14	=14	=14	=14	=14	=14	=14
*xywh-#53:70,1843,2003,406	*xywh-#53:70,1843,2003,406	*	*	*	*	*	*	*	*	*	*	*	*	*	*xywh-#53:138,1627,1949,242	*	*
4E- 4EE-/	4ee- 4cc 4g 4e-\	.	1ryy	.	.	1ryy	.	.	1ryy	.	.	1ryy	.	.	4c\	-bo-	.
(16G\LL	(16g/LL	f	.	.	.	.	.	.	.	.	.	.	.	.	4c\	-żny	.
16F\	16f/	.	.	.	.	.	.	.	.	.	.	.	.	.	.	.	.
16E-\	16e-/	.	.	.	.	.	.	.	.	.	.	.	.	.	.	.	.
16D\JJ	16d/JJ	.	.	.	.	.	.	.	.	.	.	.	.	.	.	.	.
4C\)	4c/)	.	.	.	.	.	.	.	.	.	.	.	.	.	8r	.	.
.	.	.	.	.	.	.	.	.	.	.	.	.	.	.	8c\	Choć	.
4r	4r	.	.	.	.	.	.	.	.	.	.	.	.	.	8c\	z_daw-	.
.	.	.	.	.	.	.	.	.	.	.	.	.	.	.	8c\	-nych	.
=15	=15	=15	=15	=15	=15	=15	=15	=15	=15	=15	=15	=15	=15	=15	=15	=15	=15
4E- 4EE-/	4cc 4g 4c/	p	1ryy	.	.	1ryy	.	.	1ryy	.	.	1ryy	.	.	4c\	ksią-	.
4r	4r	.	.	.	.	.	.	.	.	.	.	.	.	.	4c\	-żąt,	.
4F 4FF^/	4dd-X 4d-X^/	.	.	.	.	.	.	.	.	.	.	.	.	.	8.d-X\	wię-	.
.	.	.	.	.	.	.	.	.	.	.	.	.	.	.	16d-\	-céj	.
4r	4r	.	.	.	.	.	.	.	.	.	.	.	.	.	8.d-\	niż	.
.	.	.	.	.	.	.	.	.	.	.	.	.	.	.	16d-\	w_dos-	.
=16	=16	=16	=16	=16	=16	=16	=16	=16	=16	=16	=16	=16	=16	=16	=16	=16	=16
*	*^	*	*	*	*	*	*	*	*	*	*	*	*	*	*	*	*
*	*	*xywh-#53:70,1843,2003,406	*	*	*	*	*	*	*	*	*	*	*	*	*	*	*	*
4.F 4.FF^\	4.dd-X 4.a-X/	4d-X\	.	1ryy	.	.	1ryy	.	.	1ryy	.	.	1ryy	.	.	(4.d-X\	-tat-	.
.	.	4e-\	.	.	.	.	.	.	.	.	.	.	.	.	.	.	.	.
!	!LO:N:vis=4	!	!	!	!	!	!	!	!	!	!	!	!	!	!	!	!	!
8E- 8EE-/	8cc 8g/	.	.	.	.	.	.	.	.	.	.	.	.	.	.	8c\)	.	.
2Dn 2DDn/	2bn/	2g 2f\	.	.	.	.	.	.	.	.	.	.	.	.	.	2B\	-ki,	.
=17	=17	=17	=17	=17	=17	=17	=17	=17	=17	=17	=17	=17	=17	=17	=17	=17	=17	=17
*	*	*^	*	*	*	*	*	*	*	*	*	*	*	*	*	*	*	*
4C 4CC/	2.cc/	2en 2c\	4ryy	.	1ryy	.	.	1ryy	.	.	1ryy	.	.	1ryy	.	.	4.c\	w_bos-	.
4En\	.	.	4b-\	.	.	.	.	.	.	.	.	.	.	.	.	.	.	.	.
.	.	.	.	.	.	.	.	.	.	.	.	.	.	.	.	.	8B-\	-ką	.
(8F\L	.	2ryy	4a-X\	.	.	.	.	.	.	.	.	.	.	.	.	.	4.A-X\	cześć	.
8E-X\	.	.	.	.	.	.	.	.	.	.	.	.	.	.	.	.	.	.	.
8D-X\	8b-/L	.	4f\	.	.	.	.	.	.	.	.	.	.	.	.	.	.	.	.
8C\J)	8cc/J	.	.	.	.	.	.	.	.	.	.	.	.	.	.	.	8A-\	za-	.
*	*	*v	*v	*	*	*	*	*	*	*	*	*	*	*	*	*	*	*	*
=18	=18	=18	=18	=18	=18	=18	=18	=18	=18	=18	=18	=18	=18	=18	=18	=18	=18	=18
(4BB-/	(2dd-X/	4g 4f\	.	1ryy	.	.	1ryy	.	.	1ryy	.	.	1ryy	.	.	4G/	-moż-	.
4C/)	.	8f\L	.	.	.	.	.	.	.	.	.	.	.	.	.	8Fn/L	.	.
.	.	8en\J	.	.	.	.	.	.	.	.	.	.	.	.	.	8E-/J	.	.
4C 4CC/	4cc/)	4g 4e\	.	.	.	.	.	.	.	.	.	.	.	.	.	4G/	-ny.	.
4r;	4r;	4ryy	.	.	.	.	.	.	.	.	.	.	.	.	.	4r;	.	.
*	*v	*v	*	*	*	*	*	*	*	*	*	*	*	*	*	*	*	*
!!LO:LB:g=original
=19	=19	=19	=19	=19	=19	=19	=19	=19	=19	=19	=19	=19	=19	=19	=19	=19	=19
*xywh-#53:85,2201,2090,515	*xywh-#53:85,2201,2090,515	*	*	*	*	*	*	*	*	*	*	*	*	*	*	*	*
!	!LO:TX:a:Bi:t=Lento.	!	!	!	!	!	!	!	!	!	!	!	!	!	!	!	!
!	!LO:TX:a:t=fl.:rj	!	!	!	!	!	!	!	!	!	!	!	!	!	!LO:TX:a:B:t=Lento	!	!
4f 4F\	(8ff\L	pp	1ryy	.	.	1ryy	.	.	1ryy	.	.	1ryy	.	.	1ryy	.	.
.	8aan\	.	.	.	.	.	.	.	.	.	.	.	.	.	.	.	.
4r	8gg\	.	.	.	.	.	.	.	.	.	.	.	.	.	.	.	.
.	8ff\J)	.	.	.	.	.	.	.	.	.	.	.	.	.	.	.	.
*clefG2	*	*	*	*	*	*	*	*	*	*	*	*	*	*	*	*	*
!LO:TX:a:t=Clar.	!	!	!	!	!	!	!	!	!	!	!	!	!	!	!	!	!
(8b-\L	(8gg\L	.	.	.	.	.	.	.	.	.	.	.	.	.	.	.	.
8dd\	8bb-\	.	.	.	.	.	.	.	.	.	.	.	.	.	.	.	.
8cc\	8aa\	.	.	.	.	.	.	.	.	.	.	.	.	.	.	.	.
8b-\J)	8gg\J)	.	.	.	.	.	.	.	.	.	.	.	.	.	.	.	.
=20	=20	=20	=20	=20	=20	=20	=20	=20	=20	=20	=20	=20	=20	=20	=20	=20	=20
*	*^	*	*	*	*	*	*	*	*	*	*	*	*	*	*	*	*
*	*	*xywh-#53:85,2201,2090,515	*	*	*	*	*	*	*	*	*	*	*	*	*	*	*	*
(8cc\L	(8aa\L	2ryy	.	1ryy	.	.	1ryy	.	.	1ryy	.	.	1ryy	.	.	1ryy	.	.
8a\J	8ccc\)	.	.	.	.	.	.	.	.	.	.	.	.	.	.	.	.	.
!	!LO:N:vis=8	!	!	!	!	!	!	!	!	!	!	!	!	!	!	!	!	!
4f/)	[4ff\J	.	.	.	.	.	.	.	.	.	.	.	.	.	.	.	.	.
8r	8ff\L]	2fff/	.	.	.	.	.	.	.	.	.	.	.	.	.	.	.	.
(8ff\L	(8ff\	.	.	.	.	.	.	.	.	.	.	.	.	.	.	.	.	.
8een\	8gg\	.	.	.	.	.	.	.	.	.	.	.	.	.	.	.	.	.
8ee-X\J)	8aa\J	.	.	.	.	.	.	.	.	.	.	.	.	.	.	.	.	.
=21	=21	=21	=21	=21	=21	=21	=21	=21	=21	=21	=21	=21	=21	=21	=21	=21	=21	=21
!	!	!LO:S:s=1:note:problem=note-level slur	!	!	!	!	!	!	!	!	!	!	!	!	!	!	!	!
(8dd\L	[>2fff/	8bb-\L)	p	1ryy	.	.	1ryy	.	.	1ryy	.	.	1ryy	.	.	1ryy	.	.
8ff\	.	(>8ddd\	.	.	.	.	.	.	.	.	.	.	.	.	.	.	.	.
8ee-\	.	8ccc\	.	.	.	.	.	.	.	.	.	.	.	.	.	.	.	.
8dd\J	.	8bb-\J	.	.	.	.	.	.	.	.	.	.	.	.	.	.	.	.
!	!	!LO:S:s=1:note:problem=note-level slur	!	!	!	!	!	!	!	!	!	!	!	!	!	!	!	!
8cc\L	2fff/]	8ccc\L)	.	.	.	.	.	.	.	.	.	.	.	.	.	.	.	.
8ee-\	.	(>8eee-\	.	.	.	.	.	.	.	.	.	.	.	.	.	.	.	.
8dd\	.	8ddd\	.	.	.	.	.	.	.	.	.	.	.	.	.	.	.	.
8cc\J)	.	8ccc\J	.	.	.	.	.	.	.	.	.	.	.	.	.	.	.	.
*	*v	*v	*	*	*	*	*	*	*	*	*	*	*	*	*	*	*	*
=22	=22	=22	=22	=22	=22	=22	=22	=22	=22	=22	=22	=22	=22	=22	=22	=22	=22
4dd\	8ddd\L)	.	1ryy	.	.	1ryy	.	.	1ryy	.	.	1ryy	.	.	1ryy	.	.
.	8fff\J	.	.	.	.	.	.	.	.	.	.	.	.	.	.	.	.
(4cc^\	[4bb-\	.	.	.	.	.	.	.	.	.	.	.	.	.	.	.	.
8b-\L)	8bb-\L]	<	.	.	.	.	.	.	.	.	.	.	.	.	.	.	.
(8b-\	(8bb-\	.	.	.	.	.	.	.	.	.	.	.	.	.	.	.	.
8a\	8ccc\	.	.	.	.	.	.	.	.	.	.	.	.	.	.	.	.
8a-X\J	8ddd\J)	[[	.	.	.	.	.	.	.	.	.	.	.	.	.	.	.
=23	=23	=23	=23	=23	=23	=23	=23	=23	=23	=23	=23	=23	=23	=23	=23	=23	=23
!	!	!LO:HP:t=cres.	!	!	!	!	!	!	!	!	!	!	!	!	!	!	!
4ee- 4b- 4g^\)	16r	<	1ryy	.	.	1ryy	.	.	1ryy	.	.	1ryy	.	.	1ryy	.	.
.	(16eee-\LL	.	.	.	.	.	.	.	.	.	.	.	.	.	.	.	.
.	16fff\	.	.	.	.	.	.	.	.	.	.	.	.	.	.	.	.
.	16eee-\JJ)	.	.	.	.	.	.	.	.	.	.	.	.	.	.	.	.
4dd 4b- 4f^\	16r	.	.	.	.	.	.	.	.	.	.	.	.	.	.	.	.
.	(16ddd\LL	.	.	.	.	.	.	.	.	.	.	.	.	.	.	.	.
.	16eee-\	.	.	.	.	.	.	.	.	.	.	.	.	.	.	.	.
.	16ddd\JJ)	.	.	.	.	.	.	.	.	.	.	.	.	.	.	.	.
4cc 4g 4e-^\	16r	.	.	.	.	.	.	.	.	.	.	.	.	.	.	.	.
.	(16ccc\LL	.	.	.	.	.	.	.	.	.	.	.	.	.	.	.	.
.	16ddd\	.	.	.	.	.	.	.	.	.	.	.	.	.	.	.	.
.	16ccc\JJ)	.	.	.	.	.	.	.	.	.	.	.	.	.	.	.	.
4b- 4g 4d^\	16r	.	.	.	.	.	.	.	.	.	.	.	.	.	.	.	.
.	(16bb-\LL	.	.	.	.	.	.	.	.	.	.	.	.	.	.	.	.
.	16ccc\	.	.	.	.	.	.	.	.	.	.	.	.	.	.	.	.
.	16bb-\JJ)	.	.	.	.	.	.	.	.	.	.	.	.	.	.	.	.
!!LO:LB:g=original
=24	=24	=24	=24	=24	=24	=24	=24	=24	=24	=24	=24	=24	=24	=24	=24	=24	=24
*	*^	*	*	*	*	*	*	*	*	*	*	*	*	*	*	*	*
*xywh-#53:94,2671,2036,646	*xywh-#53:94,2671,2036,646	*xywh-#53:94,2671,2036,646	*	*	*	*	*	*	*	*	*	*	*	*	*	*	*	*
(4a [4f (4c/	8fff/L	4aa\	.	1ryy	.	.	1ryy	.	.	1ryy	.	.	1ryy	.	.	1ryy	.	.
.	8eee-/J	.	.	.	.	.	.	.	.	.	.	.	.	.	.	.	.	.
4b-) 4f] 4B-/)	4ddd/	4bb-\	.	.	.	.	.	.	.	.	.	.	.	.	.	.	.	.
4r	4r	2ryy	.	.	.	.	.	.	.	.	.	.	.	.	.	.	.	.
*clefF4	*	*	*	*	*	*	*	*	*	*	*	*	*	*	*	*	*	*
4D 4DD/	4b- 4a-X 4f 4B-/	.	.	.	.	.	.	.	.	.	.	.	.	.	.	.	.	.
*	*v	*v	*	*	*	*	*	*	*	*	*	*	*	*	*	*	*	*
=25	=25	=25	=25	=25	=25	=25	=25	=25	=25	=25	=25	=25	=25	=25	=25	=25	=25
!	!LO:TX:a:Bi:t=All°. con moto.	!	!	!	!	!	!	!	!	!	!	!	!	!	!LO:TX:a:B:t=Allegro	!	!
8E-L 8EE-\	(16g\LL	f	1ryy	.	.	1ryy	.	.	1ryy	.	.	1ryy	.	.	1ryy	.	.
.	16bn\	.	.	.	.	.	.	.	.	.	.	.	.	.	.	.	.
8G\	16cc\	.	.	.	.	.	.	.	.	.	.	.	.	.	.	.	.
.	16b\JJ	.	.	.	.	.	.	.	.	.	.	.	.	.	.	.	.
8c\	16cc\LL	.	.	.	.	.	.	.	.	.	.	.	.	.	.	.	.
.	16dd\	.	.	.	.	.	.	.	.	.	.	.	.	.	.	.	.
8G\J	16ee-\	.	.	.	.	.	.	.	.	.	.	.	.	.	.	.	.
.	16dd\JJ	.	.	.	.	.	.	.	.	.	.	.	.	.	.	.	.
8E-\L	16ee-\LL	.	.	.	.	.	.	.	.	.	.	.	.	.	.	.	.
.	16ff#X\	.	.	.	.	.	.	.	.	.	.	.	.	.	.	.	.
8G\	16gg\	.	.	.	.	.	.	.	.	.	.	.	.	.	.	.	.
.	16ff#\JJ	.	.	.	.	.	.	.	.	.	.	.	.	.	.	.	.
8c\	16gg\LL	.	.	.	.	.	.	.	.	.	.	.	.	.	.	.	.
.	16bbn\	.	.	.	.	.	.	.	.	.	.	.	.	.	.	.	.
8G\J	16ccc\	.	.	.	.	.	.	.	.	.	.	.	.	.	.	.	.
.	16bb\JJ	.	.	.	.	.	.	.	.	.	.	.	.	.	.	.	.
=26	=26	=26	=26	=26	=26	=26	=26	=26	=26	=26	=26	=26	=26	=26	=26	=26	=26
8E-\L	16ccc\LL	.	1ryy	.	.	1ryy	.	.	1ryy	.	.	1ryy	.	.	1ryy	.	.
.	16ddd\	.	.	.	.	.	.	.	.	.	.	.	.	.	.	.	.
8G\	16eee-\	.	.	.	.	.	.	.	.	.	.	.	.	.	.	.	.
.	16ddd\JJ	.	.	.	.	.	.	.	.	.	.	.	.	.	.	.	.
8c\	16eee-\LL	.	.	.	.	.	.	.	.	.	.	.	.	.	.	.	.
.	16ddd\	.	.	.	.	.	.	.	.	.	.	.	.	.	.	.	.
8A\J	16eee-\	.	.	.	.	.	.	.	.	.	.	.	.	.	.	.	.
.	16fff\JJ	.	.	.	.	.	.	.	.	.	.	.	.	.	.	.	.
4E-\	4ggg\)	.	.	.	.	.	.	.	.	.	.	.	.	.	.	.	.
!	!	!LO:DY:rj	!	!	!	!	!	!	!	!	!	!	!	!	!	!	!
4En 4EEn\	4ccc 4bb- 4gg 4cc\	sf	.	.	.	.	.	.	.	.	.	.	.	.	.	.	.
=27	=27	=27	=27	=27	=27	=27	=27	=27	=27	=27	=27	=27	=27	=27	=27	=27	=27
!	!	!LO:DY:rj	!	!	!	!	!	!	!	!	!	!	!	!	!	!	!
4F 4FF\	4ddd 4bb- 4ff 4dd\	sf	1ryy	.	.	1ryy	.	.	1ryy	.	.	1ryy	.	.	1ryy	.	.
4r	4r	.	.	.	.	.	.	.	.	.	.	.	.	.	.	.	.
!	!	!LO:DY:rj	!	!	!	!	!	!	!	!	!	!	!	!	!	!	!
4F 4FF\	4ccc 4aa 4ff 4cc\	sf	.	.	.	.	.	.	.	.	.	.	.	.	.	.	.
4r	4r	.	.	.	.	.	.	.	.	.	.	.	.	.	.	.	.
!!LO:PB:g=original
=28||	=28||	=28||	=28||	=28||	=28||	=28||	=28||	=28||	=28||	=28||	=28||	=28||	=28||	=28||	=28||	=28||	=28||
*xywh-#54:339,981,1946,378	*xywh-#54:339,981,1946,378	*	*xywh-#54:398,766,1926,251	*	*	*xywh-#54:395,584,1903,258	*	*	*xywh-#54:375,408,1921,229	*	*	*xywh-#54:379,200,1949,269	*	*	*	*	*
!LO:TX:a:t=trom&colon;	!	!	!	!	!	!	!	!	!	!	!	!	!	!	!	!	!
2BB- 2BBB-/	1r	.	2r	.	.	1r	.	.	1r	.	.	1r	.	.	1ryy	.	.
2r	.	.	4r	.	.	.	.	.	.	.	.	.	.	.	.	.	.
.	.	.	8r	.	.	.	.	.	.	.	.	.	.	.	.	.	.
!	!	!	!	!	!LO:DY:a	!	!	!	!	!	!	!	!	!	!	!	!
.	.	.	8B-\	Wi-	f	.	.	.	.	.	.	.	.	.	.	.	.
=29	=29	=29	=29	=29	=29	=29	=29	=29	=29	=29	=29	=29	=29	=29	=29	=29	=29
1r	1r	.	2B-\	-taj-	.	1r	.	.	1r	.	.	1r	.	.	1ryy	.	.
.	.	.	8B-\	-cie	.	.	.	.	.	.	.	.	.	.	.	.	.
.	.	.	8B-\	wi-	.	.	.	.	.	.	.	.	.	.	.	.	.
.	.	.	8B-\	-taj-	.	.	.	.	.	.	.	.	.	.	.	.	.
.	.	.	8B-\	-cie	.	.	.	.	.	.	.	.	.	.	.	.	.
=30	=30	=30	=30	=30	=30	=30	=30	=30	=30	=30	=30	=30	=30	=30	=30	=30	=30
1r	1r	.	2d^\	z_Bo-	.	2r	.	.	1r	.	.	1r	.	.	1ryy	.	.
.	.	.	4B-\	-giem	.	4r	.	.	.	.	.	.	.	.	.	.	.
.	.	.	8r	.	.	8r	.	.	.	.	.	.	.	.	.	.	.
!	!	!	!	!	!	!	!	!LO:DY:a	!	!	!	!	!	!	!	!	!
.	.	.	8B-\	wi-	.	8d\	Wi-	f	.	.	.	.	.	.	.	.	.
=31	=31	=31	=31	=31	=31	=31	=31	=31	=31	=31	=31	=31	=31	=31	=31	=31	=31
1r	1r	.	2B-\	-taj-	.	2d\	-taj-	.	2r	.	.	2r	.	.	1ryy	.	.
.	.	.	8B-\	-cie	.	8d\	-cie,	.	4r	.	.	4r	.	.	.	.	.
.	.	.	8B-\	wi-	.	8d\	wi-	.	.	.	.	.	.	.	.	.	.
.	.	.	8B-\	-taj-	.	8d\	-taj-	.	8r	.	.	8r	.	.	.	.	.
!	!	!	!	!	!	!	!	!	!	!	!LO:DY:a	!	!	!LO:DY:a	!	!	!
.	.	.	8B-\	-cie	.	8d\	-cie	.	8d\	Wi-	f	8d\	Wi-	f	.	.	.
=32	=32	=32	=32	=32	=32	=32	=32	=32	=32	=32	=32	=32	=32	=32	=32	=32	=32
1r	1f 1d 1B-	.	1B-	z_Bo-	.	1B-	z_Bo-	.	1f	-taj-	.	1f	-taj-	.	1ryy	.	.
=33	=33	=33	=33	=33	=33	=33	=33	=33	=33	=33	=33	=33	=33	=33	=33	=33	=33
1r	1r	.	4.B-\	-giem	.	4.d\	-giem	.	4.f\	-cie,	.	4.f\	-cie,	.	1ryy	.	.
.	.	.	8B-\	wi-	.	8d\	wi-	.	8f\	wi-	.	8f\	wi-	.	.	.	.
!	!	!	!	!	!	!	!	!	!LO:N:vis=4.	!	!	!	!	!	!	!	!
.	.	.	[4A\	-taj-	.	[4c\	-taj-	.	[4e-\	-taj-	.	(4f\	-taj-	.	.	.	.
.	.	.	8A\]	.	.	8c\]	.	.	8e-\]	.	.	8g\)	.	.	.	.	.
.	.	.	8A\	-cie	.	8d\	-cie	.	8e-\	-cie	.	8a\	-cie	.	.	.	.
=34	=34	=34	=34	=34	=34	=34	=34	=34	=34	=34	=34	=34	=34	=34	=34	=34	=34
2B- 2G\	2b- 2d/	.	2G\	z_Bo-	.	2B-\	z_Bo-	.	2d\	z_Bo-	.	2b-\	z_Bo-	.	1ryy	.	.
2r	2r	.	4G\	-giem!	.	4B-\	-giem!	.	4d\	-giem!	.	4d\	-giem!	.	.	.	.
.	.	.	8r	.	.	8r	.	.	8r	.	.	8r	.	.	.	.	.
.	.	.	8G\	Wi-	.	8B-\	Wi-	.	8d\	Wi-	.	8d\	Wi-	.	.	.	.
!!LO:LB:g=original
=35	=35	=35	=35	=35	=35	=35	=35	=35	=35	=35	=35	=35	=35	=35	=35	=35	=35
*xywh-#54:366,2113,2010,459	*xywh-#54:366,2113,2010,459	*	*xywh-#54:355,1917,1946,252	*	*	*xywh-#54:313,1758,1962,200	*	*	*xywh-#54:385,1559,1867,220	*	*	*xywh-#54:363,1343,1874,254	*	*	*	*	*
2B- 2E-\	2g 2e-/	.	2E-\	-taj-	.	2G/	-taj-	.	2e-\	-taj-	.	2g\	-taj-	.	1ryy	.	.
2r	2r	.	4.D\	-cie	.	4.A/	-cie	.	4.d\	-cie	.	4.f#X\	-cie	.	.	.	.
.	.	.	8D\	nam	.	8A/	nam	.	8d\	nam	.	8f#\	nam	.	.	.	.
=36	=36	=36	=36	=36	=36	=36	=36	=36	=36	=36	=36	=36	=36	=36	=36	=36	=36
1r	1r	.	2GG^>/	z Bo-	.	2B-^\	z_Bo-	.	2d^\	z_Bo-	.	2g^\	z_Bo-	.	1ryy	.	.
.	.	.	4G\	-giem	.	4B-\	-giem	.	4d\	-giem	.	4d\	-giem	.	.	.	.
.	.	.	8r	.	.	8r	.	.	8r	.	.	8r	.	.	.	.	.
.	.	.	8F\	wi-	.	8A/	wi-	.	8e-X 8c^\	wi-	.	8fn^\	wi-	.	.	.	.
=37	=37	=37	=37	=37	=37	=37	=37	=37	=37	=37	=37	=37	=37	=37	=37	=37	=37
2r	2r	.	2F\	-taj-	.	2A/	-taj-	.	2e- 2c\	-taj-	.	2f\	-taj-	.	1ryy	.	.
4r	4r	.	4F\	-cie,	.	4A\	-cie,	.	4e-\	-cie,	.	4f\	-cie,	.	.	.	.
8r	8r	ff	8r	.	.	8r	.	.	8r	.	.	8r	.	.	.	.	.
!	!	!	!	!	!LO:DY:a:rj	!	!	!LO:DY:a:rj	!	!	!LO:DY:a:rj	!	!	!LO:DY:a:rj	!	!	!
8BB- 8BBB-/	8b- 8f 8d 8B-/	.	8BB-/	wi-	f	8B-\	wi-	f	8d\	wi-	f	8b-\	wi-	f	.	.	.
=38	=38	=38	=38	=38	=38	=38	=38	=38	=38	=38	=38	=38	=38	=38	=38	=38	=38
!	!LO:TX:b:i:t=ten	!	!	!	!	!	!	!	!	!	!	!	!	!	!	!	!
2BB- 2BBB-;</	2b- 2f 2d 2B-;/	.	2BB-;/	-taj-	.	2B-;\	-taj-	.	2d;\	-taj-	.	2b-;\	-taj-	.	1ryy	.	.
*	*tremolo	*	*	*	*	*	*	*	*	*	*	*	*	*	*	*	*
!	!LO:TX:a:t=trem.	!	!	!	!	!	!	!	!	!	!	!	!	!	!	!	!
2r	16B-/LL	fp	4BB-/	-cie!	.	4B-\	-cie!	.	4B-\	-cie!	.	4B-\	-cie!	.	.	.	.
.	16b-/	.	.	.	.	.	.	.	.	.	.	.	.	.	.	.	.
.	16B-/	.	.	.	.	.	.	.	.	.	.	.	.	.	.	.	.
.	16b-/	.	.	.	.	.	.	.	.	.	.	.	.	.	.	.	.
.	16B-/	.	4r	.	.	4r	.	.	4r	.	.	4r	.	.	.	.	.
.	16b-/	.	.	.	.	.	.	.	.	.	.	.	.	.	.	.	.
.	16B-/	.	.	.	.	.	.	.	.	.	.	.	.	.	.	.	.
.	16b-/JJ	.	.	.	.	.	.	.	.	.	.	.	.	.	.	.	.
=39	=39	=39	=39	=39	=39	=39	=39	=39	=39	=39	=39	=39	=39	=39	=39	=39	=39
8r	16B-/LL	.	1r	.	.	1r	.	.	1r	.	.	1r	.	.	1ryy	.	.
.	16b-/	.	.	.	.	.	.	.	.	.	.	.	.	.	.	.	.
!LO:TX:b:t=cello.	!	!	!	!	!	!	!	!	!	!	!	!	!	!	!	!	!
!LO:TX:a:t=cello.	!	!	!	!	!	!	!	!	!	!	!	!	!	!	!	!	!
8G\L	16B-/	.	.	.	.	.	.	.	.	.	.	.	.	.	.	.	.
.	16b-/	.	.	.	.	.	.	.	.	.	.	.	.	.	.	.	.
8F\	16B-/	.	.	.	.	.	.	.	.	.	.	.	.	.	.	.	.
.	16b-/	.	.	.	.	.	.	.	.	.	.	.	.	.	.	.	.
8E-\J	16B-/	.	.	.	.	.	.	.	.	.	.	.	.	.	.	.	.
.	16b-/JJ	.	.	.	.	.	.	.	.	.	.	.	.	.	.	.	.
8D\L	16B-/LL	.	.	.	.	.	.	.	.	.	.	.	.	.	.	.	.
.	16b-/	.	.	.	.	.	.	.	.	.	.	.	.	.	.	.	.
8E-\	16B-/	.	.	.	.	.	.	.	.	.	.	.	.	.	.	.	.
.	16b-/	.	.	.	.	.	.	.	.	.	.	.	.	.	.	.	.
8D\	16B-/	.	.	.	.	.	.	.	.	.	.	.	.	.	.	.	.
.	16b-/	.	.	.	.	.	.	.	.	.	.	.	.	.	.	.	.
8C\J	16B-/	.	.	.	.	.	.	.	.	.	.	.	.	.	.	.	.
.	16b-/JJ	.	.	.	.	.	.	.	.	.	.	.	.	.	.	.	.
=40	=40	=40	=40	=40	=40	=40	=40	=40	=40	=40	=40	=40	=40	=40	=40	=40	=40
8BB-/L	16B-/LL	.	1r	.	.	1r	.	.	1r	.	.	1r	.	.	1ryy	.	.
.	16b-/	.	.	.	.	.	.	.	.	.	.	.	.	.	.	.	.
8AA/J	16B-/	.	.	.	.	.	.	.	.	.	.	.	.	.	.	.	.
.	16b-/	.	.	.	.	.	.	.	.	.	.	.	.	.	.	.	.
[4GG/	16B-/	.	.	.	.	.	.	.	.	.	.	.	.	.	.	.	.
.	16b-/	.	.	.	.	.	.	.	.	.	.	.	.	.	.	.	.
.	16B-/	.	.	.	.	.	.	.	.	.	.	.	.	.	.	.	.
.	16b-/JJ	.	.	.	.	.	.	.	.	.	.	.	.	.	.	.	.
8GG/L]	16B-/LL	.	.	.	.	.	.	.	.	.	.	.	.	.	.	.	.
.	16b-/	.	.	.	.	.	.	.	.	.	.	.	.	.	.	.	.
8E-/	16B-/	.	.	.	.	.	.	.	.	.	.	.	.	.	.	.	.
.	16b-/	.	.	.	.	.	.	.	.	.	.	.	.	.	.	.	.
8D/	16B-/	.	.	.	.	.	.	.	.	.	.	.	.	.	.	.	.
.	16b-/	.	.	.	.	.	.	.	.	.	.	.	.	.	.	.	.
8C/J	16B-/	.	.	.	.	.	.	.	.	.	.	.	.	.	.	.	.
.	16b-/JJ	.	.	.	.	.	.	.	.	.	.	.	.	.	.	.	.
=41	=41	=41	=41	=41	=41	=41	=41	=41	=41	=41	=41	=41	=41	=41	=41	=41	=41
8BB-/L	16B-/LL	.	1r	.	.	1r	.	.	1r	.	.	1r	.	.	1ryy	.	.
.	16b-/	.	.	.	.	.	.	.	.	.	.	.	.	.	.	.	.
8AA/J	16B-/	.	.	.	.	.	.	.	.	.	.	.	.	.	.	.	.
.	16b-/	.	.	.	.	.	.	.	.	.	.	.	.	.	.	.	.
4GG^>/	16B-/	.	.	.	.	.	.	.	.	.	.	.	.	.	.	.	.
.	16b-/	.	.	.	.	.	.	.	.	.	.	.	.	.	.	.	.
.	16B-/	.	.	.	.	.	.	.	.	.	.	.	.	.	.	.	.
.	16b-/JJ	.	.	.	.	.	.	.	.	.	.	.	.	.	.	.	.
*	*Xtremolo	*	*	*	*	*	*	*	*	*	*	*	*	*	*	*	*
4G 4GG\	4b- 4d 4B-/	.	.	.	.	.	.	.	.	.	.	.	.	.	.	.	.
4F 4FF\	4a 4d 4A/	.	.	.	.	.	.	.	.	.	.	.	.	.	.	.	.
!!LO:LB:g=original
=42	=42	=42	=42	=42	=42	=42	=42	=42	=42	=42	=42	=42	=42	=42	=42	=42	=42
*xywh-#54:357,2743,1976,502	*xywh-#54:357,2743,1976,502	*	*	*	*	*	*	*	*	*	*	*	*	*	*xywh-#54:371,2510,1899,254	*	*
(2En (2EEn/	[2a 2g 2c#X [2A/	.	1ryy	.	.	1ryy	.	.	1ryy	.	.	1ryy	.	.	2r	.	.
4D) 4DD/)	4a] 4f#X 4d 4A/]	.	.	.	.	.	.	.	.	.	.	.	.	.	4r	.	.
!	!	!	!	!	!	!	!	!	!	!	!	!	!	!	!LO:TX:a:Bi:t=Recit	!	!
4r	4r	.	.	.	.	.	.	.	.	.	.	.	.	.	4A/	Pod	.
=43	=43	=43	=43	=43	=43	=43	=43	=43	=43	=43	=43	=43	=43	=43	=43	=43	=43
!	!LO:S:s=1:note:problem=note-level slur	!	!	!	!	!	!	!	!	!	!	!	!	!	!	!	!
(<2D\	[2a (<2f#X [>2A</	.	1ryy	.	.	1ryy	.	.	1ryy	.	.	1ryy	.	.	4d\	mat-	.
.	.	.	.	.	.	.	.	.	.	.	.	.	.	.	4d\	-ką	.
!	!LO:S:s=1:note:problem=note-level slur	!	!	!	!	!	!	!	!	!	!	!	!	!	!	!	!
4F#X\)	4a] 4d) 4A</]	.	.	.	.	.	.	.	.	.	.	.	.	.	4.c\	Bos-	.
4r	4r	.	.	.	.	.	.	.	.	.	.	.	.	.	.	.	.
.	.	.	.	.	.	.	.	.	.	.	.	.	.	.	8c\	-ką	.
=44	=44	=44	=44	=44	=44	=44	=44	=44	=44	=44	=44	=44	=44	=44	=44	=44	=44
8G\L	2g 2B-</	.	1ryy	.	.	1ryy	.	.	1ryy	.	.	1ryy	.	.	4.B-\	w_głos	.
8G\	.	.	.	.	.	.	.	.	.	.	.	.	.	.	.	.	.
8Fn\	.	.	.	.	.	.	.	.	.	.	.	.	.	.	.	.	.
8E-\J	.	.	.	.	.	.	.	.	.	.	.	.	.	.	8B-\	nie-	.
4D\	2r	.	.	.	.	.	.	.	.	.	.	.	.	.	(4B-\	-wias-	.
(8E-\L	.	.	.	.	.	.	.	.	.	.	.	.	.	.	8.c\)	.	.
8D\J)	.	.	.	.	.	.	.	.	.	.	.	.	.	.	.	.	.
.	.	.	.	.	.	.	.	.	.	.	.	.	.	.	16B-\	-ta	.
=45	=45	=45	=45	=45	=45	=45	=45	=45	=45	=45	=45	=45	=45	=45	=45	=45	=45
*ped	*	*	*	*	*	*	*	*	*	*	*	*	*	*	*	*	*
[2C/	2a 2e- 2c^/	.	1ryy	.	.	1ryy	.	.	1ryy	.	.	1ryy	.	.	4A-X/	pła-	.
.	.	.	.	.	.	.	.	.	.	.	.	.	.	.	4A-/	-cze,	.
4C/]	4a 4e- 4c/	.	.	.	.	.	.	.	.	.	.	.	.	.	4.A-/	Zgię-	.
4r	4r	.	.	.	.	.	.	.	.	.	.	.	.	.	.	.	.
.	.	.	.	.	.	.	.	.	.	.	.	.	.	.	8c\	-ta	.
=46	=46	=46	=46	=46	=46	=46	=46	=46	=46	=46	=46	=46	=46	=46	=46	=46	=46
4C\	4e- 4A/	.	1ryy	.	.	1ryy	.	.	1ryy	.	.	1ryy	.	.	(4e-\	nad	.
4r	4r	.	.	.	.	.	.	.	.	.	.	.	.	.	8.c\)	.	.
.	.	.	.	.	.	.	.	.	.	.	.	.	.	.	16A-X/	ko-	.
4r	4r	.	.	.	.	.	.	.	.	.	.	.	.	.	2G/	-łys-	.
*Xped	*	*	*	*	*	*	*	*	*	*	*	*	*	*	*	*	*
4C#X\	4en 4B- 4G/	.	.	.	.	.	.	.	.	.	.	.	.	.	.	.	.
=47	=47	=47	=47	=47	=47	=47	=47	=47	=47	=47	=47	=47	=47	=47	=47	=47	=47
*ped	*	*	*	*	*	*	*	*	*	*	*	*	*	*	*	*	*
4D\	4d 4B- 4G/	.	1ryy	.	.	1ryy	.	.	1ryy	.	.	1ryy	.	.	2G/	-ką.	.
*Xped	*	*	*	*	*	*	*	*	*	*	*	*	*	*	*	*	*
4r	4r	p	.	.	.	.	.	.	.	.	.	.	.	.	.	.	.
*ped	*	*	*	*	*	*	*	*	*	*	*	*	*	*	*	*	*
!LO:S:s=1:note:problem=note-level slur	!LO:S:s=2:note:problem=note-level slur	!	!	!	!	!	!	!	!	!	!	!	!	!	!	!	!
(<2D (<2DD\	(>2f#X [>2d (>2A</	.	.	.	.	.	.	.	.	.	.	.	.	.	2r	.	.
*Xped	*	*	*	*	*	*	*	*	*	*	*	*	*	*	*	*	*
=48	=48	=48	=48	=48	=48	=48	=48	=48	=48	=48	=48	=48	=48	=48	=48	=48	=48
*ped	*	*	*	*	*	*	*	*	*	*	*	*	*	*	*	*	*
!LO:S:s=1:note:problem=note-level slur	!LO:S:s=2:note:problem=note-level slur	!	!	!	!	!	!	!	!	!	!	!	!	!	!	!	!
2GG) 2GGG\)	2g) 2d] 2B-</)	.	1ryy	.	.	1ryy	.	.	1ryy	.	.	1ryy	.	.	1r	.	.
2r	2r	.	.	.	.	.	.	.	.	.	.	.	.	.	.	.	.
*Xped	*	*	*	*	*	*	*	*	*	*	*	*	*	*	*	*	*
==	==	==	==	==	==	==	==	==	==	==	==	==	==	==	==	==	==
*-	*-	*-	*-	*-	*-	*-	*-	*-	*-	*-	*-	*-	*-	*-	*-	*-	*-
!!!system-decoration: <s1>[(g1)]{(s6,s7)}
!!!RDF**kern: > = above
!!!RDF**kern: < = below
!!!ENC: Filip Voros
!!!END: 2022-02-21
!!!ENC: Andrzej Kubiczek
!!!END: 2022-02-28
!!!ENC-iiif: Bartosz Żurakowski
!!!END-iiif: 2022-09-04
